src/pos-icons/brightness-auto.svg

<svg height="24" viewBox="0 0 24 24" width="24" xmlns="http://www.w3.org/2000/svg"><path d="m14.3 16-.7-2h-3.2l-.7 2h-1.9l3.2-9h2l3.2 9zm5.7-7.31v-4.69h-4.69l-3.31-3.31-3.31 3.31h-4.69v4.69l-3.31 3.31 3.31 3.31v4.69h4.69l3.31 3.31 3.31-3.31h4.69v-4.69l3.31-3.31zm-9.15 3.96h2.3l-1.15-3.65z"/></svg>

<?xml version="1.0" encoding="UTF-8"?><!DOCTYPE svg PUBLIC "-//W3C//DTD SVG 1.1//EN" "http://www.w3.org/Graphics/SVG/1.1/DTD/svg11.dtd"><svg xmlns="http://www.w3.org/2000/svg" xmlns:xlink="http://www.w3.org/1999/xlink" version="1.1" id="mdi-brightness-auto" width="24" height="24" viewBox="0 0 24 24"><path d="M14.3,16L13.6,14H10.4L9.7,16H7.8L11,7H13L16.2,16H14.3M20,8.69V4H15.31L12,0.69L8.69,4H4V8.69L0.69,12L4,15.31V20H8.69L12,23.31L15.31,20H20V15.31L23.31,12L20,8.69M10.85,12.65H13.15L12,9L10.85,12.65Z" /></svg>
